optimized/20/solid/bars-3-center-left.svg

<svg xmlns="http://www.w3.org/2000/svg" viewBox="0 0 20 20">
  <path fill-rule="evenodd" d="M2 4.75C2 4.33579 2.33579 4 2.75 4H17.25C17.6642 4 18 4.33579 18 4.75C18 5.16421 17.6642 5.5 17.25 5.5H2.75C2.33579 5.5 2 5.16421 2 4.75ZM2 15.25C2 14.8358 2.33579 14.5 2.75 14.5H17.25C17.6642 14.5 18 14.8358 18 15.25C18 15.6642 17.6642 16 17.25 16H2.75C2.33579 16 2 15.6642 2 15.25Z" clip-rule="evenodd"/>
  <path fill-rule="evenodd" d="M2 10C2 9.58579 2.33579 9.25 2.75 9.25H10.25C10.6642 9.25 11 9.58579 11 10C11 10.4142 10.6642 10.75 10.25 10.75H2.75C2.33579 10.75 2 10.4142 2 10Z" clip-rule="evenodd"/>
</svg>

<svg xmlns="http://www.w3.org/2000/svg" viewBox="0 0 20 20" fill="currentColor" aria-hidden="true">
  <path fill-rule="evenodd" d="M2 4.75A.75.75 0 012.75 4h14.5a.75.75 0 010 1.5H2.75A.75.75 0 012 4.75zm0 10.5a.75.75 0 01.75-.75h14.5a.75.75 0 010 1.5H2.75a.75.75 0 01-.75-.75zM2 10a.75.75 0 01.75-.75h7.5a.75.75 0 010 1.5h-7.5A.75.75 0 012 10z" clip-rule="evenodd"/>
</svg>
